X:1
T:James Gibb editions
T:Mistress mine, well may you fare - Morley
%%score [ 1 2 ]
L:1/8
Q:1/4=120
M:4/4
K:F
V:1 treble-8 nm="Tenor"
V:2 bass nm="Lute"
V:1
"^Thomas Morley\n(1557-1602)""^Mistress mine, well may you fare" G2 B2 A2 =B2 | c2 A2 G4 | %2
w: Mis- tress mine, well|may you fare;|
w: This fair morn- ing,|sun- ny bright,|
w: In these woods are|none but birds;|
w: Ne- ver strive, nor|make no noise;|
 B2 (AB) c2 B2 | A2 A2 G4 |[M:4/4][K:treble-8] d3 e f2 g2 | e2 e2 d4 | d3 e f2 g2 | e2 e2 d4 || %8
w: Kind be your thoughts and|void of care.|Sweet Saint Ve- nus|be your speed,|That you may in|love pro- ceed.|
w: That gives * life to|love's de- light.|Ev- 'ry heart with|heat en- flames,|And our cold af-|fec- tion blames.|
w: They can * speak but|si- lent words;|They are pret- ty|harm- less things;|They will shade us|with their wings,|
w: 'Tis for * fool- ish|girls and boys.|Ev- 'ry child- ish|thing can say;|Go to! How now?|Pray, a- way!|
 d2 cB A2 G2 | c2 B2 A4 | z2 d2 cBAG | ^F2 c2 =B2 A2 | G8 || d2 cB A2 G2 | c2 B2 A4 | z2 d2 cBAG | %16
w: Coll me and clip and|kiss me too;|So so so so so|so true love should|do.|Coll me and clip and|kiss me too;|So so so so so|
w: ||||||||
w: ||||||||
w: ||||||||
 ^F2 c2 =B2 A2 | G8 |] %18
w: so true love should|do.|
w: ||
w: ||
w: ||
V:2
 G,4 ^F,2 G,2 | C,2 D,2 G,,4 | G,4 C,2 G,2 | D,4 G,,4 |[M:4/4] G,4 D,2 G,2 | A,4 D,4 | %6
 G,4 D,2 G,2 | A,2 A,,2 D,4 || B,,2 F,,G,, D,2 G,2 | C,2 G,,2 D,4 | B,,4 C,4 | D,2 _E,2 D,4 | %12
 G,,8 || B,,2 F,,G,, D,2 G,2 | C,2 G,,2 D,4 | B,,4 C,4 | D,2 _E,2 D,4 | G,,8 |] %18

